!!!OTL: Siehgst as net, da kimmt er, der mit seim Zylinder
!!!ARE: Europa, Mitteleuropa, Deutschland, Ober - Franken, Koednitz
!!!SCT: V0003D
!!!YEM: Copyright 1995, estate of Helmut Schaffrath.
**kern
*ICvox
*Ivox
*M2/4
*k[b-]
*F:
{8c
8c
8d
8c
=1
4e
4e}
=2
{8c
8c
8d
8c
=3
4f
4f}
=4
{8a
8a
8g
8f
=5
8f
8e
8e
8e}
=6
{8f
8f
8e
8d
=7
8d
8c
8c
8c}
==
!!!AGN: Geselligkeits - Lied, Scherz
!!!ONB: ESAC (Essen Associative Code) Database: VARIANT
!!!AMT: simple duple
!!!AIN: vox
!!!EED: Helmut Schaffrath
!!!EEV: 1.0
*-
